icons/location.svg

<svg width="15" height="17" viewBox="0 0 15 17" fill="none" xmlns="http://www.w3.org/2000/svg">
<path d="M13.2727 7.13636C13.2727 11.9091 7.13636 16 7.13636 16C7.13636 16 1 11.9091 1 7.13636C1 5.5089 1.64651 3.94809 2.7973 2.7973C3.94809 1.64651 5.5089 1 7.13636 1C8.76383 1 10.3246 1.64651 11.4754 2.7973C12.6262 3.94809 13.2727 5.5089 13.2727 7.13636Z" stroke="black" stroke-width="1.5" stroke-linecap="round" stroke-linejoin="round"/>
<path d="M7.13701 9.18197C8.26668 9.18197 9.18246 8.26619 9.18246 7.13652C9.18246 6.00685 8.26668 5.09106 7.13701 5.09106C6.00733 5.09106 5.09155 6.00685 5.09155 7.13652C5.09155 8.26619 6.00733 9.18197 7.13701 9.18197Z" stroke="black" stroke-width="1.5" stroke-linecap="round" stroke-linejoin="round"/>
</svg>

<svg width="20" height="20" fill="none" version="1.1" viewBox="0 0 20 20" xmlns="http://www.w3.org/2000/svg"><g transform="matrix(1.1948 0 0 1.1948 1.4737 -.15559)" stroke="#000" stroke-linecap="round" stroke-linejoin="round" stroke-width="1.5"><path d="m13.273 7.1364c0 4.7727-6.1363 8.8636-6.1363 8.8636s-6.1364-4.0909-6.1364-8.8636c0-1.6275 0.64651-3.1883 1.7973-4.3391s2.7116-1.7973 4.3391-1.7973c1.6275 0 3.1882 0.64651 4.339 1.7973s1.7973 2.7116 1.7973 4.3391z"/><path d="m7.137 9.182c1.1297 0 2.0454-0.91578 2.0454-2.0454s-0.91578-2.0455-2.0454-2.0455c-1.1297 0-2.0455 0.91579-2.0455 2.0455s0.91578 2.0454 2.0455 2.0454z"/></g></svg>
